assets/social_media/instagram.svg

<svg xmlns="http://www.w3.org/2000/svg" width="24" height="24" viewBox="0 0 24 24"><path fill="#fff" d="M12 2c5.514 0 10 4.486 10 10s-4.486 10-10 10-10-4.486-10-10 4.486-10 10-10zm0-2c-6.627 0-12 5.373-12 12s5.373 12 12 12 12-5.373 12-12-5.373-12-12-12zm4.615 6h-9.23c-.766 0-1.385.62-1.385 1.384v9.23c0 .766.619 1.386 1.385 1.386h9.23c.766 0 1.385-.62 1.385-1.385v-9.23c0-.765-.619-1.385-1.385-1.385zm-4.615 3.693c1.274 0 2.309 1.032 2.309 2.307s-1.035 2.307-2.309 2.307-2.307-1.033-2.307-2.307 1.033-2.307 2.307-2.307zm4.5 6.346c0 .255-.207.461-.461.461h-8.078c-.254 0-.461-.207-.461-.461v-5.039h.949c-.045.158-.078.32-.102.486-.023.168-.038.339-.038.514 0 2.04 1.652 3.693 3.691 3.693s3.691-1.653 3.691-3.693c0-.174-.015-.346-.039-.514-.023-.166-.058-.328-.102-.486h.95v5.039zm0-6.991c0 .255-.207.462-.461.462h-1.088c-.256 0-.461-.208-.461-.462v-1.087c0-.255.205-.461.461-.461h1.088c.254 0 .461.207.461.461v1.087z"/></svg>

<?xml version="1.0" encoding="utf-8"?>
<!-- Generator: Adobe Illustrator 23.0.3, SVG Export Plug-In . SVG Version: 6.00 Build 0)  -->
<svg version="1.1" id="Layer_1" xmlns="http://www.w3.org/2000/svg" xmlns:xlink="http://www.w3.org/1999/xlink" x="0px" y="0px"
	 viewBox="0 0 24 24" style="enable-background:new 0 0 24 24;" xml:space="preserve">
<style type="text/css">
	.st0{fill:#0F2942;}
</style>
<path class="st0" d="M12,2c5.5,0,10,4.5,10,10s-4.5,10-10,10S2,17.5,2,12S6.5,2,12,2z M12,0C5.4,0,0,5.4,0,12s5.4,12,12,12
	s12-5.4,12-12S18.6,0,12,0z M16.6,6H7.4C6.6,6,6,6.6,6,7.4v9.2C6,17.4,6.6,18,7.4,18h9.2c0.8,0,1.4-0.6,1.4-1.4V7.4
	C18,6.6,17.4,6,16.6,6z M12,9.7c1.3,0,2.3,1,2.3,2.3s-1,2.3-2.3,2.3s-2.3-1-2.3-2.3S10.7,9.7,12,9.7z M16.5,16
	c0,0.3-0.2,0.5-0.5,0.5H8c-0.3,0-0.5-0.2-0.5-0.5v-5h0.9c0,0.2-0.1,0.3-0.1,0.5c0,0.2,0,0.3,0,0.5c0,2,1.7,3.7,3.7,3.7
	s3.7-1.7,3.7-3.7c0-0.2,0-0.3,0-0.5c0-0.2-0.1-0.3-0.1-0.5h1V16z M16.5,9c0,0.3-0.2,0.5-0.5,0.5H15c-0.3,0-0.5-0.2-0.5-0.5V8
	c0-0.3,0.2-0.5,0.5-0.5H16c0.3,0,0.5,0.2,0.5,0.5V9z"/>
</svg>
